assets/icons/utility/date_input.svg

<?xml version="1.0"?><svg xmlns="http://www.w3.org/2000/svg" width="52" height="52" viewBox="0 0 52 52"><path fill="#fff" d="m46.3 19.7h-40.6c-0.9 0-1.6 0.7-1.6 1.6v23.5c0 2.6 2.1 4.7 4.7 4.7h34.4c2.6 0 4.7-2.1 4.7-4.7v-23.5c0-0.9-0.7-1.6-1.6-1.6z m-28.1 21.9c0 0.9-0.7 1.6-1.6 1.6h-3.1c-0.9 0-1.6-0.7-1.6-1.6v-3.1c0-0.9 0.7-1.6 1.6-1.6h3.1c0.9 0 1.6 0.7 1.6 1.6v3.1z m10.9 0c0 0.9-0.7 1.6-1.6 1.6h-3.1c-0.9 0-1.6-0.7-1.6-1.6v-3.1c0-0.9 0.7-1.6 1.6-1.6h3.1c0.9 0 1.6 0.7 1.6 1.6v3.1z m0-10.9c0 0.9-0.7 1.6-1.6 1.6h-3.1c-0.9 0-1.6-0.7-1.6-1.6v-3.1c0-0.9 0.7-1.6 1.6-1.6h3.1c0.9 0 1.6 0.7 1.6 1.6v3.1z m11 0c0 0.9-0.7 1.6-1.6 1.6h-3.1c-0.9 0-1.6-0.7-1.6-1.6v-3.1c0-0.9 0.7-1.6 1.6-1.6h3.1c0.9 0 1.6 0.7 1.6 1.6v3.1z m3.1-23.5h-3.9v-1.6c0-1.7-1.4-3.1-3.1-3.1-1.7 0-3.1 1.4-3.1 3.1v1.6h-14.1v-1.6c0-1.7-1.4-3.1-3.1-3.1s-3.1 1.4-3.1 3.1v1.6h-4c-2.6 0-4.7 2.1-4.7 4.7v1.6c0 0.9 0.7 1.6 1.6 1.6h40.7c0.9 0 1.6-0.7 1.6-1.6v-1.6c-0.1-2.6-2.2-4.7-4.8-4.7z"></path></svg>

<svg xmlns="http://www.w3.org/2000/svg" x="0px" y="0px"
	 width="52px" height="52px" viewBox="0 0 52 52" enable-background="new 0 0 52 52" xml:space="preserve">
<path fill="#FFFFFF" d="M46.3,19.7H5.7c-0.9,0-1.6,0.7-1.6,1.6v23.5c0,2.6,2.1,4.7,4.7,4.7h34.4c2.6,0,4.7-2.1,4.7-4.7V21.3
	C47.9,20.4,47.2,19.7,46.3,19.7z M18.2,41.6c0,0.9-0.7,1.6-1.6,1.6h-3.1c-0.9,0-1.6-0.7-1.6-1.6v-3.1c0-0.9,0.7-1.6,1.6-1.6h3.1
	c0.9,0,1.6,0.7,1.6,1.6V41.6z M29.1,41.6c0,0.9-0.7,1.6-1.6,1.6h-3.1c-0.9,0-1.6-0.7-1.6-1.6v-3.1c0-0.9,0.7-1.6,1.6-1.6h3.1
	c0.9,0,1.6,0.7,1.6,1.6V41.6z M29.1,30.7c0,0.9-0.7,1.6-1.6,1.6h-3.1c-0.9,0-1.6-0.7-1.6-1.6v-3.1c0-0.9,0.7-1.6,1.6-1.6h3.1
	c0.9,0,1.6,0.7,1.6,1.6V30.7z M40.1,30.7c0,0.9-0.7,1.6-1.6,1.6h-3.1c-0.9,0-1.6-0.7-1.6-1.6v-3.1c0-0.9,0.7-1.6,1.6-1.6h3.1
	c0.9,0,1.6,0.7,1.6,1.6V30.7z M43.2,7.2h-3.9V5.6c0-1.7-1.4-3.1-3.1-3.1c-1.7,0-3.1,1.4-3.1,3.1v1.6H19V5.6c0-1.7-1.4-3.1-3.1-3.1
	s-3.1,1.4-3.1,3.1v1.6H8.8c-2.6,0-4.7,2.1-4.7,4.7v1.6c0,0.9,0.7,1.6,1.6,1.6h40.7c0.9,0,1.6-0.7,1.6-1.6v-1.6
	C47.9,9.3,45.8,7.2,43.2,7.2z"/>
</svg>
